www/assets/icons/keyboard_alt.svg

<svg xmlns="http://www.w3.org/2000/svg" width="24" height="24" viewBox="0 0 24 24" fill='currentColor'><path d="M21 3.5H3c-1.1 0-2 .9-2 2v13c0 1.1.9 2 2 2h18c1.1 0 2-.9 2-2v-13c0-1.1-.9-2-2-2m-14 8v2H5v-2zm-2-2v-2h2v2zm6 2v2H9v-2zm-2-2v-2h2v2zm7 6v1H8v-1zm-1-4v2h-2v-2zm-2-2v-2h2v2zm4 4v-2h2v2zm2-4h-2v-2h2z"/></svg>

<svg width="24" height="24" viewBox="0 0 24 24" xmlns="http://www.w3.org/2000/svg" fill='currentColor'><path d="M21 3.5H3C1.9 3.5 1 4.4 1 5.5V18.5C1 19.6 1.9 20.5 3 20.5H21C22.1 20.5 23 19.6 23 18.5V5.5C23 4.4 22.1 3.5 21 3.5ZM7 11.5V13.5H5V11.5H7ZM5 9.5V7.5H7V9.5H5ZM11 11.5V13.5H9V11.5H11ZM9 9.5V7.5H11V9.5H9ZM16 15.5V16.5H8V15.5H16ZM15 11.5V13.5H13V11.5H15ZM13 9.5V7.5H15V9.5H13ZM17 13.5V11.5H19V13.5H17ZM19 9.5H17V7.5H19V9.5Z"/></svg>
